X:122
T: Die Schlangenkoechin
N: Q2079M
O: Nordeuropa, Schweden
N: Schwedische Fassung der Ballade.
N: Zweite, vierte und fuenfte Zeile = Refrain.
R: Ballade, Mord; Reigen - Tanz, antiphonal
M: 6/8
L: 1/8
K: G
G | G2A_B2F | ^c3d2z |
d2cd2_B | A3z3 |
A2_Bc2d | A3_B2z |
G3G2G | F3z3 |
G3A3 | _B3A2B | G2G2z

@@@ Tune index: 1177
